ui/StatusQ/src/assets/img/icons/edit_pencil.svg

<svg fill="none" height="24" viewBox="0 0 24 24" width="24" xmlns="http://www.w3.org/2000/svg"><path clip-rule="evenodd" d="m16.187 3.24584c1.2612-1.26112 3.3058-1.26112 4.567.00001 1.2611 1.26112 1.2611 3.3058 0 4.56692l-11.75175 11.75173c-.42718.4272-.95618.7384-1.53706.9044l-4.20764 1.2022c-.26236.0749-.54473.0018-.73767-.1912-.19294-.1929-.26611-.4753-.19115-.7376l1.20219-4.2077c.16596-.5809.47723-1.1099.90441-1.5371zm3.5044 1.06253c-.6743-.6743-1.7675-.6743-2.4418 0l-11.75175 11.75173c-.24661.2466-.4263.552-.52211.8873-.36205 1.2672.80948 2.4387 2.07664 2.0767.33534-.0958.64073-.2755.88734-.5222l11.75168-11.75166c.6743-.6743.6743-1.76756 0-2.44187z" fill="#000" fill-rule="evenodd"/></svg>

<svg width="24" height="24" viewBox="0 0 24 24" fill="none" xmlns="http://www.w3.org/2000/svg">
<path fill-rule="evenodd" clip-rule="evenodd" d="M16.187 3.24584C17.4482 1.98472 19.4928 1.98472 20.754 3.24585C22.0151 4.50697 22.0151 6.55165 20.754 7.81277L9.00225 19.5645C8.57507 19.9917 8.04607 20.3029 7.46519 20.4689L3.25755 21.6711C2.99519 21.746 2.71282 21.6729 2.51988 21.4799C2.32694 21.287 2.25377 21.0046 2.32873 20.7423L3.53092 16.5346C3.69688 15.9537 4.00815 15.4247 4.43533 14.9975L16.187 3.24584ZM19.6914 4.30837C19.0171 3.63407 17.9239 3.63407 17.2496 4.30837L5.49785 16.0601C5.25124 16.3067 5.07155 16.6121 4.97574 16.9474C4.61369 18.2146 5.78522 19.3861 7.05238 19.0241C7.38772 18.9283 7.69311 18.7486 7.93972 18.5019L19.6914 6.75024C20.3657 6.07594 20.3657 4.98268 19.6914 4.30837Z" fill="black"/>
</svg>
